X:479
T:Reel 479
M:4/4
K:Dmaj
L:1/8
 (3dcd |A>G (3FGF f>ed (3cde |d>D (3FFF A2GFGA|B>G (3GFE c>GE>F| (3GFE FG FEA2|B>c (3GFE c>d (3ABc |d>F (3FFF A2f2|g>e (3ced c>A (3GEE |B>E (3EDE G2:|ze| (3fgf dg fed>F (3FGF | (3Bed c>B A>F (3GFE | (3EFE =c>E E>F (3GFE |D>G (3GFG A2cde|d>G (3GBE d>c (3EEE |D>d (3dcd d>F (3FGF |B2Bd FAdA|B2 (3GFG =c2:|
